svgs/1F976.svg

<svg xmlns="http://www.w3.org/2000/svg" version="1.1" xmlns:xlink="http://www.w3.org/1999/xlink" preserveAspectRatio="none" x="0px" y="0px" width="72px" height="72px" viewBox="0 0 72 72">
<defs>
<g id="Layer3_0_FILL">
<path fill="#4FC3F7" stroke="none" d="
M 127.55 96.25
Q 127.55 69.4 119.05 49.4 103.55 12.85 64 12.85 24.45 12.85 8.9 49.4 0.4 69.4 0.4 96.25 0.4 106.6 19 113.9 37.65 121.2 64 121.2 90.35 121.2 108.95 113.9 127.55 106.6 127.55 96.25 Z"/>
</g>

<g id="Layer3_1_FILL">
<path fill="#2F2F2F" stroke="none" d="
M 36 56.5
Q 36 60.5 38.35 63.3 40.65 66.1 43.95 66.1 47.2 66.1 49.55 63.3 51.85 60.45 51.85 56.5 51.85 52.5 49.55 49.65 47.2 46.85 43.95 46.85 40.65 46.85 38.35 49.65 36 52.5 36 56.5 Z"/>
</g>

<g id="Layer3_2_FILL">
<path fill="#2F2F2F" stroke="none" d="
M 91.9 56.5
Q 91.9 52.5 89.6 49.65 87.3 46.85 84 46.85 80.75 46.85 78.4 49.65 76.1 52.5 76.1 56.5 76.1 60.45 78.4 63.3 80.75 66.1 84 66.1 87.3 66.1 89.6 63.3 91.9 60.5 91.9 56.5 Z"/>
</g>

<g id="Layer3_3_FILL">
<path fill="#E3F2FD" stroke="none" d="
M 61.3 46.8
Q 61.3 43.55 59 41.25 56.65 38.9 53.45 38.9
L 18.55 38.9
Q 15.3 38.9 13 41.25 10.7 43.55 10.7 46.8 10.7 50.05 13 52.35 15.3 54.65 18.55 54.65
L 53.45 54.65
Q 56.65 54.65 59 52.35 61.3 50.05 61.3 46.8 Z"/>
</g>

<g id="Layer3_4_FILL">
<path fill="#2F2F2F" stroke="none" d="
M 104.85 97.5
Q 109 93.35 109 87.6 109 81.85 104.85 77.75 100.75 73.6 95 73.6
L 33 73.6
Q 27.2 73.6 23.1 77.75 19 81.85 19 87.6 19 93.4 23.1 97.5 27.2 101.6 33 101.6
L 95 101.6
Q 100.75 101.6 104.85 97.5
M 102.05 80.55
Q 105 83.5 105 87.6 105 91.75 102.05 94.7 99.15 97.6 95 97.6
L 33 97.6
Q 28.85 97.6 25.9 94.7 23 91.75 23 87.6 23 83.45 25.9 80.55 28.85 77.6 33 77.6
L 95 77.6
Q 99.15 77.6 102.05 80.55 Z"/>
</g>

<g id="Layer3_5_MEMBER_0_FILL">
<path fill="#2F2F2F" stroke="none" d="
M 50.55 75.2
L 47.4 75.2 47.4 100.2 50.55 100.2 50.55 75.2 Z"/>
</g>

<g id="Layer3_5_MEMBER_1_FILL">
<path fill="#2F2F2F" stroke="none" d="
M 35.55 75.2
L 32.4 75.2 32.4 100.2 35.55 100.2 35.55 75.2 Z"/>
</g>

<g id="Layer3_5_MEMBER_2_FILL">
<path fill="#2F2F2F" stroke="none" d="
M 95.55 75.2
L 92.4 75.2 92.4 100.2 95.55 100.2 95.55 75.2 Z"/>
</g>

<g id="Layer3_5_MEMBER_3_FILL">
<path fill="#2F2F2F" stroke="none" d="
M 80.55 75.2
L 77.4 75.2 77.4 100.2 80.55 100.2 80.55 75.2 Z"/>
</g>

<g id="Layer3_5_MEMBER_4_FILL">
<path fill="#2F2F2F" stroke="none" d="
M 65.55 75.2
L 62.4 75.2 62.4 100.2 65.55 100.2 65.55 75.2 Z"/>
</g>

<g id="Layer3_5_MEMBER_5_FILL">
<path fill="#2F2F2F" stroke="none" d="
M 107.5 89.2
L 107.5 86.05 20.45 86.05 20.45 89.2 107.5 89.2 Z"/>
</g>

<g id="Layer1_0_FILL">
<path fill="#BBDEFB" stroke="none" d="
M 8.3 36.65
Q 8.2912109375 35.623828125 8.25 34.4 8.2240234375 29.7255859375 5.85 23.4 3.6337890625 27.126171875 2.65 31.3 1.67578125 35.47109375 1.1 39.6
L 6.65 59.7
Q 7.87890625 48.175 8.3 36.65
M 70.95 39.9
Q 67.199609375 39.1837890625 64.55 40.05 63.062890625 40.9791015625 63.3 43.05 64.186328125 50.6068359375 65.75 67.95 71.934765625 48.69453125 70.95 39.9
M 58.7 12.8
Q 57.3923828125 11.601171875 55.6 10.2 53.869921875 8.7841796875 52.95 8.25 52.0169921875 7.7791015625 50.55 7.55 51.15 8.85 53.55 15.9 54.5 18.7 57.4 32.7 63.66640625 17.72890625 61.95 16.6 60.0640625 13.9984375 58.7 12.8 Z"/>
</g>

<g id="Layer0_0_FILL">
<path fill="#E3F2FD" stroke="none" d="
M 46.55 4.15
Q 45.486328125 3.6119140625 44.15 3.2 42.40859375 2.6556640625 40.2 2.3 37.35234375 1.88515625 33.7 1.8 25.1546875 1.609375 19.7 3.45 14.2859375 5.329296875 10.2 10.9 6.1669921875 16.469921875 6.85 21.45 14.03671875 16.1736328125 22.75 13.1 31.5150390625 10.0314453125 36.6 10 37.853125 10.022265625 39.25 9.8 43.5119140625 9.2587890625 49.1 6.95 48.2263671875 4.92265625 46.55 4.15 Z"/>
</g>

<path id="Layer2_0_1_STROKES" stroke="#2F2F2F" stroke-width="3" stroke-linejoin="round" stroke-linecap="round" fill="none" d="
M 54.05 21.85
L 52.9 21.75
Q 48.9 21.4 47.4 19.9 46.25 18.5 45.75 17.45
M 18.3 21.85
Q 23.2 21.65 24.95 19.9 26.1 18.5 26.6 17.45"/>
</defs>

<g id="Layer_1">
<g transform="matrix( 0.5625, 0, 0, 0.5625, 0,-2.5) ">
<use xlink:href="#Layer3_0_FILL"/>
</g>

<g transform="matrix( 0.5625, 0, 0, 0.5625, 0,-2.5) ">
<use xlink:href="#Layer3_1_FILL"/>
</g>

<g transform="matrix( 0.5625, 0, 0, 0.5625, 0,-2.5) ">
<use xlink:href="#Layer3_2_FILL"/>
</g>

<g transform="matrix( 1, 0, 0, 1, 0,0) ">
<use xlink:href="#Layer3_3_FILL"/>
</g>

<g transform="matrix( 0.5625, 0, 0, 0.5625, 0,-2.5) ">
<use xlink:href="#Layer3_4_FILL"/>
</g>

<g transform="matrix( 0.5624237060546875, 0, 0, 0.5624237060546875, 0,-2.5) ">
<use xlink:href="#Layer3_5_MEMBER_0_FILL"/>
</g>

<g transform="matrix( 0.5624237060546875, 0, 0, 0.5624237060546875, 0,-2.5) ">
<use xlink:href="#Layer3_5_MEMBER_1_FILL"/>
</g>

<g transform="matrix( 0.5624237060546875, 0, 0, 0.5624237060546875, 0,-2.5) ">
<use xlink:href="#Layer3_5_MEMBER_2_FILL"/>
</g>

<g transform="matrix( 0.5624237060546875, 0, 0, 0.5624237060546875, 0,-2.5) ">
<use xlink:href="#Layer3_5_MEMBER_3_FILL"/>
</g>

<g transform="matrix( 0.5624237060546875, 0, 0, 0.5624237060546875, 0,-2.5) ">
<use xlink:href="#Layer3_5_MEMBER_4_FILL"/>
</g>

<g transform="matrix( 0.5624237060546875, 0, 0, 0.5624237060546875, 0,-2.5) ">
<use xlink:href="#Layer3_5_MEMBER_5_FILL"/>
</g>
</g>

<g id="Camada_2">
<g transform="matrix( 1, 0, 0, 1, 0,0) ">
<use xlink:href="#Layer2_0_1_STROKES"/>
</g>
</g>

<g id="Camada_3">
<g transform="matrix( 1, 0, 0, 1, 0,0) ">
<use xlink:href="#Layer1_0_FILL"/>
</g>
</g>

<g id="Camada_5">
<g transform="matrix( 1, 0, 0, 1, 0,0) ">
<use xlink:href="#Layer0_0_FILL"/>
</g>
</g>
</svg>

<svg xmlns="http://www.w3.org/2000/svg" xmlns:xlink="http://www.w3.org/1999/xlink" preserveAspectRatio="none" viewBox="0 0 72 72"><defs><path id="a" fill="#4FC3F7" d="M127.55 96.25q0-26.85-8.5-46.85Q103.55 12.85 64 12.85T8.9 49.4Q.4 69.4.4 96.25.4 106.6 19 113.9q18.65 7.3 45 7.3t44.95-7.3q18.6-7.3 18.6-17.65z"/><path id="b" fill="#2F2F2F" d="M36 56.5q0 4 2.35 6.8 2.3 2.8 5.6 2.8 3.25 0 5.6-2.8 2.3-2.85 2.3-6.8 0-4-2.3-6.85-2.35-2.8-5.6-2.8-3.3 0-5.6 2.8Q36 52.5 36 56.5z"/><path id="c" fill="#2F2F2F" d="M91.9 56.5q0-4-2.3-6.85-2.3-2.8-5.6-2.8-3.25 0-5.6 2.8-2.3 2.85-2.3 6.85 0 3.95 2.3 6.8 2.35 2.8 5.6 2.8 3.3 0 5.6-2.8t2.3-6.8z"/><path id="d" fill="#E3F2FD" d="M61.3 46.8q0-3.25-2.3-5.55-2.35-2.35-5.55-2.35h-34.9q-3.25 0-5.55 2.35-2.3 2.3-2.3 5.55t2.3 5.55q2.3 2.3 5.55 2.3h34.9q3.2 0 5.55-2.3 2.3-2.3 2.3-5.55z"/><path id="e" fill="#2F2F2F" d="M104.85 97.5q4.15-4.15 4.15-9.9t-4.15-9.85q-4.1-4.15-9.85-4.15H33q-5.8 0-9.9 4.15-4.1 4.1-4.1 9.85 0 5.8 4.1 9.9 4.1 4.1 9.9 4.1h62q5.75 0 9.85-4.1m-2.8-16.95Q105 83.5 105 87.6q0 4.15-2.95 7.1-2.9 2.9-7.05 2.9H33q-4.15 0-7.1-2.9-2.9-2.95-2.9-7.1 0-4.15 2.9-7.05 2.95-2.95 7.1-2.95h62q4.15 0 7.05 2.95z"/><path id="f" fill="#2F2F2F" d="M50.55 75.2H47.4v25h3.15v-25z"/><path id="g" fill="#2F2F2F" d="M35.55 75.2H32.4v25h3.15v-25z"/><path id="h" fill="#2F2F2F" d="M95.55 75.2H92.4v25h3.15v-25z"/><path id="i" fill="#2F2F2F" d="M80.55 75.2H77.4v25h3.15v-25z"/><path id="j" fill="#2F2F2F" d="M65.55 75.2H62.4v25h3.15v-25z"/><path id="k" fill="#2F2F2F" d="M107.5 89.2v-3.15H20.45v3.15h87.05z"/><path id="m" fill="#BBDEFB" d="M8.3 36.65q-.009-1.026-.05-2.25-.026-4.674-2.4-11-2.216 3.726-3.2 7.9-.974 4.171-1.55 8.3l5.55 20.1Q7.879 48.175 8.3 36.65m62.65 3.25q-3.75-.716-6.4.15-1.487.93-1.25 3 .886 7.557 2.45 24.9 6.185-19.255 5.2-28.05M58.7 12.8q-1.308-1.199-3.1-2.6-1.73-1.416-2.65-1.95-.933-.47-2.4-.7.6 1.3 3 8.35.95 2.8 3.85 16.8 6.266-14.971 4.55-16.1-1.886-2.602-3.25-3.8z"/><path id="n" fill="#E3F2FD" d="M46.55 4.15q-1.064-.538-2.4-.95-1.741-.544-3.95-.9-2.848-.415-6.5-.5-8.545-.19-14 1.65-5.414 1.88-9.5 7.45-4.033 5.57-3.35 10.55 7.187-5.276 15.9-8.35 8.765-3.069 13.85-3.1 1.253.022 2.65-.2 4.262-.541 9.85-2.85-.874-2.027-2.55-2.8z"/><path id="l" fill="none" stroke="#2F2F2F" stroke-linecap="round" stroke-linejoin="round" stroke-width="3" d="M54.05 21.85l-1.15-.1q-4-.35-5.5-1.85-1.15-1.4-1.65-2.45m-27.45 4.4q4.9-.2 6.65-1.95 1.15-1.4 1.65-2.45"/></defs><use transform="translate(0 -2.5) scale(.5625)" xlink:href="#a"/><use transform="translate(0 -2.5) scale(.5625)" xlink:href="#b"/><use transform="translate(0 -2.5) scale(.5625)" xlink:href="#c"/><use xlink:href="#d"/><use transform="translate(0 -2.5) scale(.5625)" xlink:href="#e"/><use transform="matrix(.56242 0 0 .56242 0 -2.5)" xlink:href="#f"/><use transform="matrix(.56242 0 0 .56242 0 -2.5)" xlink:href="#g"/><use transform="matrix(.56242 0 0 .56242 0 -2.5)" xlink:href="#h"/><use transform="matrix(.56242 0 0 .56242 0 -2.5)" xlink:href="#i"/><use transform="matrix(.56242 0 0 .56242 0 -2.5)" xlink:href="#j"/><use transform="matrix(.56242 0 0 .56242 0 -2.5)" xlink:href="#k"/><g><use xlink:href="#l"/></g><g><use xlink:href="#m"/></g><g><use xlink:href="#n"/></g></svg>
